content/hardware/05.pro-solutions/solutions-and-kits/enclosure-kit/image.svg

<svg width="300" height="188" viewBox="0 0 300 188" fill="none" xmlns="http://www.w3.org/2000/svg">
<g clip-path="url(#clip0_1278_117)">
<path d="M297.949 40.527C298.805 40.527 299.5 39.8328 299.5 38.9765V36.5739C299.5 35.7176 298.805 35.0233 297.949 35.0233H295.097V0.500305H4.90324V35.0233H2.05083C1.19446 35.0233 0.500305 35.7176 0.500305 36.5739V38.9765C0.500305 39.8328 1.19446 40.527 2.05083 40.527H4.90324V45.4988H2.05083C1.19446 45.4988 0.500305 46.1931 0.500305 47.0493V140.244C0.500305 141.1 1.19446 141.795 2.05083 141.795H4.90324V187.425H295.097V141.795H297.949C298.805 141.795 299.5 141.1 299.5 140.244V47.0493C299.5 46.1931 298.805 45.4988 297.949 45.4988H295.097V40.527H297.949Z" fill="#7F9097"/>
<path d="M295.097 45.4988H297.949C298.805 45.4988 299.5 46.1936 299.5 47.0493V140.244C299.5 141.1 298.805 141.794 297.949 141.794H295.097V45.4988Z" fill="#41423C" stroke="#51504B" stroke-width="2.98818" stroke-miterlimit="10"/>
<path d="M295.097 35.0233H297.949C298.805 35.0233 299.5 35.7181 299.5 36.5738V38.9764C299.5 39.8322 298.805 40.527 297.949 40.527H295.097V35.0233V35.0233Z" fill="#51504B" stroke="#51504B" stroke-width="2.98818" stroke-miterlimit="10"/>
<path d="M4.90326 141.794H2.05085C1.19509 141.794 0.500324 141.1 0.500324 140.244L0.500324 47.0493C0.500324 46.1936 1.19509 45.4988 2.05086 45.4988H4.90326L4.90326 141.794Z" fill="#41423C" stroke="#51504B" stroke-width="2.98818" stroke-miterlimit="10"/>
<path d="M4.90326 40.527H2.05086C1.1951 40.527 0.500324 39.8322 0.500324 38.9764L0.500324 36.5738C0.500324 35.7181 1.19509 35.0233 2.05085 35.0233H4.90326L4.90326 40.527V40.527Z" fill="#51504B" stroke="#51504B" stroke-width="2.98818" stroke-miterlimit="10"/>
<path d="M295.097 156.504H4.90326V187.425H295.097V156.504Z" fill="#41423C" stroke="#51504B" stroke-width="2.98818" stroke-miterlimit="10"/>
<path d="M295.097 0.500305H4.90326V31.4209H295.097V0.500305Z" fill="#41423C" stroke="#51504B" stroke-width="2.98818" stroke-miterlimit="10"/>
<path d="M278.771 84.1757H262.297C261.415 84.1757 260.701 84.8901 260.701 85.7713V102.246C260.701 103.127 261.415 103.841 262.297 103.841H278.771C279.652 103.841 280.367 103.127 280.367 102.246V85.7713C280.367 84.8901 279.652 84.1757 278.771 84.1757Z" fill="#41423C" stroke="#41423C" stroke-width="2.96466" stroke-linecap="round" stroke-linejoin="round"/>
<path d="M230.268 115.452L218.012 120.473V67.5439L230.268 72.565C232.341 73.4141 233.695 75.4317 233.695 77.6716V110.346C233.695 112.586 232.341 114.603 230.268 115.452V115.452Z" fill="#41423C" stroke="#63615B" stroke-width="2.98818" stroke-linecap="round" stroke-linejoin="round"/>
<path d="M29.3907 59.201H212.619C215.596 59.201 218.012 61.6174 218.012 64.5938V123.423C218.012 126.4 215.596 128.816 212.619 128.816H29.3906C26.4144 128.816 23.998 126.4 23.998 123.424V64.5938C23.998 61.6174 26.4144 59.201 29.3907 59.201Z" fill="#41423C" stroke="#63615B" stroke-width="2.98818" stroke-linecap="round" stroke-linejoin="round"/>
<path d="M210.496 70.9144H31.5143V117.103H210.496V70.9144Z" fill="#7F9097"/>
<path d="M210.496 61.6047H35.8203V63.5782H210.496V61.6047Z" fill="#32352F" stroke="#32352F" stroke-width="2.96466" stroke-linecap="round" stroke-linejoin="round"/>
<path d="M210.496 124.439H35.8203V126.413H210.496V124.439Z" fill="#32352F" stroke="#32352F" stroke-width="2.96466" stroke-linecap="round" stroke-linejoin="round"/>
<path d="M44.6641 94.7517H35.8427V110.063H44.6641V94.7517Z" fill="#A4B0B5"/>
<path d="M44.6641 77.9547H35.8427V93.2655H44.6641V77.9547Z" fill="#A4B0B5"/>
<path d="M55.431 94.7517H46.6095V110.063H55.431V94.7517Z" fill="#A4B0B5"/>
<path d="M55.431 77.9547H46.6095V93.2655H55.431V77.9547Z" fill="#A4B0B5"/>
<path d="M66.1979 94.7517H57.3764V110.063H66.1979V94.7517Z" fill="#A4B0B5"/>
<path d="M66.1979 77.9547H57.3764V93.2655H66.1979V77.9547Z" fill="#A4B0B5"/>
<path d="M76.9648 94.7517H68.1433V110.063H76.9648V94.7517Z" fill="#A4B0B5"/>
<path d="M76.9648 77.9547H68.1433V93.2655H76.9648V77.9547Z" fill="#A4B0B5"/>
<path d="M87.7316 94.7517H78.9102V110.063H87.7316V94.7517Z" fill="#A4B0B5"/>
<path d="M87.7316 77.9547H78.9102V93.2655H87.7316V77.9547Z" fill="#A4B0B5"/>
<path d="M98.4986 94.7517H89.6771V110.063H98.4986V94.7517Z" fill="#A4B0B5"/>
<path d="M98.4986 77.9547H89.6771V93.2655H98.4986V77.9547Z" fill="#A4B0B5"/>
<path d="M109.266 94.7517H100.444V110.063H109.266V94.7517Z" fill="#A4B0B5"/>
<path d="M109.266 77.9547H100.444V93.2655H109.266V77.9547Z" fill="#A4B0B5"/>
<path d="M120.032 94.7517H111.211V110.063H120.032V94.7517Z" fill="#A4B0B5"/>
<path d="M120.032 77.9547H111.211V93.2655H120.032V77.9547Z" fill="#A4B0B5"/>
<path d="M130.799 94.7517H121.978V110.063H130.799V94.7517Z" fill="#A4B0B5"/>
<path d="M130.799 77.9547H121.978V93.2655H130.799V77.9547Z" fill="#A4B0B5"/>
<path d="M141.566 94.7517H132.745V110.063H141.566V94.7517Z" fill="#A4B0B5"/>
<path d="M141.566 77.9547H132.745V93.2655H141.566V77.9547Z" fill="#A4B0B5"/>
<path d="M152.333 94.7517H143.511V110.063H152.333V94.7517Z" fill="#A4B0B5"/>
<path d="M152.333 77.9547H143.511V93.2655H152.333V77.9547Z" fill="#A4B0B5"/>
<path d="M163.1 94.7517H154.278V110.063H163.1V94.7517Z" fill="#A4B0B5"/>
<path d="M163.1 77.9547H154.278V93.2655H163.1V77.9547Z" fill="#A4B0B5"/>
<path d="M173.867 94.7517H165.045V110.063H173.867V94.7517Z" fill="#A4B0B5"/>
<path d="M173.867 77.9547H165.045V93.2655H173.867V77.9547Z" fill="#A4B0B5"/>
<path d="M184.634 94.7517H175.812V110.063H184.634V94.7517Z" fill="#A4B0B5"/>
<path d="M184.634 77.9547H175.812V93.2655H184.634V77.9547Z" fill="#A4B0B5"/>
<path d="M195.4 94.7517H186.579V110.063H195.4V94.7517Z" fill="#A4B0B5"/>
<path d="M195.4 77.9547H186.579V93.2655H195.4V77.9547Z" fill="#A4B0B5"/>
<path d="M206.167 94.7517H197.346V110.063H206.167V94.7517Z" fill="#A4B0B5"/>
<path d="M206.167 77.9547H197.346V93.2655H206.167V77.9547Z" fill="#A4B0B5"/>
<path d="M295.097 156.504H4.90326V171.965H295.097V156.504Z" fill="#51504B" stroke="#51504B" stroke-width="2.98818" stroke-miterlimit="10"/>
<path d="M295.097 174.547H4.90326" stroke="#63615B" stroke-width="2.98818" stroke-miterlimit="10" stroke-linecap="square"/>
<path d="M4.90323 30.9918L295.097 30.9918V15.5315L4.90323 15.5315V30.9918Z" fill="#51504B" stroke="#51504B" stroke-width="2.98818" stroke-miterlimit="10"/>
<path d="M4.90326 12.9495H295.097" stroke="#63615B" stroke-width="2.98818" stroke-miterlimit="10" stroke-linecap="square"/>
<path d="M220.645 54.1319L221.545 54.3321L222.546 54.9326L223.246 55.9332L223.447 56.9339H223.346V63.4383L238.256 69.7424L238.356 69.6423L239.157 70.2427L239.857 71.2434L240.058 72.244V115.573L239.958 116.373L239.357 117.374L238.356 118.175H238.256L223.346 124.379V130.883H223.447L223.246 131.784L222.646 132.784L221.645 133.485L220.645 133.685H21.5118L20.6112 133.485L19.6105 132.884L18.9101 131.884L18.7099 130.883V56.9339L18.9101 56.0333L19.5105 55.0326L20.5112 54.3321L21.5118 54.1319V54.232H220.545L220.645 54.1319ZM295.097 31.4209H4.90326V156.504H295.097V31.4209V31.4209ZM284.59 104.97L284.39 105.871L283.789 106.871L282.789 107.572L281.788 107.772L281.688 107.872H259.473V107.772L258.572 107.572L257.572 106.971L256.871 105.971L256.671 104.97V82.7551L256.871 81.8545L257.472 80.8538L258.472 80.1534L259.473 79.9532V80.0533H281.688L281.788 79.9532L282.688 80.1534L283.689 80.7538L284.39 81.7545L284.59 82.7551L284.49 82.8552V105.07L284.59 104.97Z" fill="#63615B" stroke="#63615B" stroke-width="2.98818" stroke-miterlimit="10"/>
<path d="M292.583 152.196H7.91576C7.34592 152.196 6.88397 152.658 6.88397 153.228V154.083C6.88397 154.652 7.34592 155.114 7.91576 155.114H292.583C293.153 155.114 293.615 154.652 293.615 154.083V153.228C293.615 152.658 293.153 152.196 292.583 152.196Z" fill="#898681" stroke="#898681" stroke-width="2.96466" stroke-linecap="round" stroke-linejoin="round"/>
<path d="M296.666 137.962H298.84V140.096C298.84 140.597 298.433 141.004 297.932 141.004H296.666V137.962Z" fill="#898681" stroke="#898681" stroke-width="2.96466" stroke-linecap="round" stroke-linejoin="round"/>
<path d="M1.29419 137.907H3.46754V140.949H2.00628C1.61327 140.949 1.29419 140.63 1.29419 140.237V137.907H1.29419Z" fill="#898681" stroke="#898681" stroke-width="2.96466" stroke-linecap="round" stroke-linejoin="round"/>
<path d="M296.666 38.1039H298.84V38.8124C298.84 39.2608 298.476 39.6248 298.027 39.6248H296.666V38.1039Z" fill="#898681" stroke="#898681" stroke-width="2.96466" stroke-linecap="round" stroke-linejoin="round"/>
<path d="M1.29419 38.1039H3.46754V39.6248H2.12645C1.66711 39.6248 1.29419 39.2519 1.29419 38.7925V38.1039H1.29419Z" fill="#898681" stroke="#898681" stroke-width="2.96466" stroke-linecap="round" stroke-linejoin="round"/>
<path d="M43.2927 81.8832V89.6884H42.0199V86.2661H38.7176V89.6884H37.4448V81.8832H38.7176V85.1373H42.0199V81.8832H43.2927Z" fill="white"/>
<path d="M53.9317 81.8832V82.952H49.789V85.1614H53.5475V86.2182H49.789V88.5956H53.9196V89.6884H48.5162V81.8832H53.9317Z" fill="white"/>
<path d="M60.8001 81.8832V88.5956H64.8108V89.6884H59.5273V81.8832H60.8001Z" fill="white"/>
<path d="M71.6074 81.8832V88.5956H75.618V89.6884H70.3346V81.8832H71.6074Z" fill="white"/>
<path d="M86.8696 85.7858C86.8696 88.0913 85.8488 89.8084 83.5553 89.8084C81.2738 89.8084 80.3132 88.3315 80.3132 85.8218C80.3132 83.4322 81.3098 81.7751 83.5913 81.7751C85.8609 81.7751 86.8696 83.0599 86.8696 85.7858ZM85.5247 85.7858C85.5247 83.7924 85.1404 82.8439 83.5913 82.8439C82.0904 82.8439 81.67 83.7805 81.67 85.8218C81.67 87.683 82.0062 88.7397 83.5553 88.7397C85.0802 88.7397 85.5247 87.659 85.5247 85.7858Z" fill="white"/>
<path d="M42.1519 105.271L42.6083 98.8945H43.8331L42.8725 106.7H41.5995L40.4108 102.461L39.3661 106.7H38.0693L36.9044 98.8945H38.2133L38.8257 105.259L39.9065 100.852H40.9391L42.1519 105.271H42.1519Z" fill="white"/>
<path d="M54.4481 102.797C54.4481 105.102 53.4273 106.82 51.1339 106.82C48.8524 106.82 47.8917 105.343 47.8917 102.833C47.8917 100.444 48.8883 98.7863 51.1698 98.7863C53.4394 98.7863 54.4481 100.071 54.4481 102.797ZM53.1032 102.797C53.1032 100.804 52.719 99.855 51.1698 99.855C49.669 99.855 49.2486 100.792 49.2486 102.833C49.2486 104.694 49.5847 105.751 51.1339 105.751C52.6588 105.751 53.1032 104.67 53.1032 102.797Z" fill="white"/>
<path d="M59.2271 98.8945H61.9409C63.9822 98.8945 64.7508 99.8069 64.7508 101.344C64.7508 102.425 64.2345 103.205 63.3579 103.578L65.099 106.7H63.598L62.085 103.842H60.4999V106.7H59.2271V98.8945H59.2271ZM63.4059 101.38C63.4059 100.371 62.9737 99.9633 61.8569 99.9633H60.4999V102.785H61.905C62.7575 102.785 63.4059 102.449 63.4059 101.38H63.4059Z" fill="white"/>
<path d="M71.6074 98.8945V105.607H75.618V106.7H70.3346V98.8945H71.6074Z" fill="white"/>
<path d="M80.6614 98.8945H83.2551C86.053 98.8945 86.8936 100.564 86.8936 102.737C86.8936 104.766 86.2691 106.7 83.207 106.7H80.6614V98.8945ZM81.9342 99.9633V105.607H83.3151C85.2964 105.607 85.5366 104.37 85.5366 102.797C85.5366 101.236 85.1764 99.9633 83.2311 99.9633H81.9342V99.9633Z" fill="white"/>
<path d="M94.3864 105.367C94.8307 105.367 95.179 105.595 95.179 106.087C95.179 106.568 94.8788 106.832 94.3864 106.832C93.882 106.832 93.6179 106.568 93.6179 106.087C93.6179 105.631 93.9181 105.367 94.3864 105.367ZM94.9748 98.8945V101.572L94.8547 104.106H93.9301L93.7979 101.56V98.8945H94.9748Z" fill="white"/>
<path d="M43.2927 81.8832V89.6884H42.0199V86.2661H38.7176V89.6884H37.4448V81.8832H38.7176V85.1373H42.0199V81.8832H43.2927Z" fill="white"/>
<path d="M53.9317 81.8832V82.952H49.789V85.1614H53.5475V86.2182H49.789V88.5956H53.9196V89.6884H48.5162V81.8832H53.9317Z" fill="white"/>
<path d="M60.8001 81.8832V88.5956H64.8108V89.6884H59.5273V81.8832H60.8001Z" fill="white"/>
<path d="M71.6074 81.8832V88.5956H75.618V89.6884H70.3346V81.8832H71.6074Z" fill="white"/>
<path d="M86.8696 85.7858C86.8696 88.0913 85.8488 89.8084 83.5553 89.8084C81.2738 89.8084 80.3132 88.3315 80.3132 85.8218C80.3132 83.4322 81.3098 81.7751 83.5913 81.7751C85.8609 81.7751 86.8696 83.0599 86.8696 85.7858ZM85.5247 85.7858C85.5247 83.7924 85.1404 82.8439 83.5913 82.8439C82.0904 82.8439 81.67 83.7805 81.67 85.8218C81.67 87.683 82.0062 88.7397 83.5553 88.7397C85.0802 88.7397 85.5247 87.659 85.5247 85.7858Z" fill="white"/>
<path d="M42.1519 105.271L42.6083 98.8945H43.8331L42.8725 106.7H41.5995L40.4108 102.461L39.3661 106.7H38.0693L36.9044 98.8945H38.2133L38.8257 105.259L39.9065 100.852H40.9391L42.1519 105.271H42.1519Z" fill="white"/>
<path d="M54.4481 102.797C54.4481 105.102 53.4273 106.82 51.1339 106.82C48.8524 106.82 47.8917 105.343 47.8917 102.833C47.8917 100.444 48.8883 98.7863 51.1698 98.7863C53.4394 98.7863 54.4481 100.071 54.4481 102.797ZM53.1032 102.797C53.1032 100.804 52.719 99.855 51.1698 99.855C49.669 99.855 49.2486 100.792 49.2486 102.833C49.2486 104.694 49.5847 105.751 51.1339 105.751C52.6588 105.751 53.1032 104.67 53.1032 102.797Z" fill="white"/>
<path d="M59.2271 98.8945H61.9409C63.9822 98.8945 64.7508 99.8069 64.7508 101.344C64.7508 102.425 64.2345 103.205 63.358 103.578L65.099 106.7H63.598L62.085 103.842H60.4999V106.7H59.2271V98.8945H59.2271ZM63.4059 101.38C63.4059 100.371 62.9737 99.9633 61.8569 99.9633H60.4999V102.785H61.905C62.7575 102.785 63.4059 102.449 63.4059 101.38H63.4059Z" fill="white"/>
<path d="M71.6074 98.8945V105.607H75.618V106.7H70.3346V98.8945H71.6074Z" fill="white"/>
<path d="M80.6614 98.8945H83.2551C86.053 98.8945 86.8936 100.564 86.8936 102.737C86.8936 104.766 86.2691 106.7 83.207 106.7H80.6614V98.8945ZM81.9342 99.9633V105.607H83.3151C85.2964 105.607 85.5366 104.37 85.5366 102.797C85.5366 101.236 85.1764 99.9633 83.231 99.9633H81.9342V99.9633Z" fill="white"/>
<path d="M94.3864 105.367C94.8307 105.367 95.179 105.595 95.179 106.087C95.179 106.568 94.8788 106.832 94.3864 106.832C93.882 106.832 93.6179 106.568 93.6179 106.087C93.6179 105.631 93.9181 105.367 94.3864 105.367ZM94.9748 98.8945V101.572L94.8547 104.106H93.9301L93.7979 101.56V98.8945H94.9748Z" fill="white"/>
</g>
<defs>
<clipPath id="clip0_1278_117">
<rect width="300" height="187.925" fill="white"/>
</clipPath>
</defs>
</svg>

<svg xmlns="http://www.w3.org/2000/svg" width="300" height="188" fill="none" viewBox="0 0 300 188"><g clip-path="url(#a)"><path fill="#7f9097" d="M297.949 40.527c.856 0 1.551-.694 1.551-1.55v-2.403c0-.856-.695-1.55-1.551-1.55h-2.852V.5H4.903v34.523H2.051a1.55 1.55 0 0 0-1.55 1.55v2.404c0 .856.693 1.55 1.55 1.55h2.852v4.972H2.051a1.55 1.55 0 0 0-1.55 1.55v93.195c0 .856.693 1.551 1.55 1.551h2.852v45.63h290.194v-45.63h2.852c.856 0 1.551-.695 1.551-1.551V47.049c0-.856-.695-1.55-1.551-1.55h-2.852v-4.972z"/><path fill="#41423c" stroke="#51504b" stroke-miterlimit="10" stroke-width="2.988" d="M295.097 45.499h2.852c.856 0 1.551.695 1.551 1.55v93.195a1.55 1.55 0 0 1-1.551 1.55h-2.852z"/><path fill="#51504b" stroke="#51504b" stroke-miterlimit="10" stroke-width="2.988" d="M295.097 35.023h2.852c.856 0 1.551.695 1.551 1.55v2.403c0 .856-.695 1.551-1.551 1.551h-2.852v-5.504Z"/><path fill="#41423c" stroke="#51504b" stroke-miterlimit="10" stroke-width="2.988" d="M4.903 141.794H2.051a1.55 1.55 0 0 1-1.55-1.55V47.049c0-.855.694-1.55 1.55-1.55h2.852z"/><path fill="#51504b" stroke="#51504b" stroke-miterlimit="10" stroke-width="2.988" d="M4.903 40.527H2.051c-.856 0-1.55-.695-1.55-1.55v-2.403c0-.856.694-1.55 1.55-1.55h2.852v5.503Z"/><path fill="#41423c" stroke="#51504b" stroke-miterlimit="10" stroke-width="2.988" d="M295.097 156.504H4.903v30.921h290.194zM295.097.5H4.903v30.92h290.194z"/><path fill="#41423c" stroke="#41423c" stroke-linecap="round" stroke-linejoin="round" stroke-width="2.965" d="M278.771 84.176h-16.474c-.882 0-1.596.714-1.596 1.595v16.475c0 .881.714 1.595 1.596 1.595h16.474c.881 0 1.596-.714 1.596-1.595V85.771c0-.88-.715-1.595-1.596-1.595"/><path fill="#41423c" stroke="#63615b" stroke-linecap="round" stroke-linejoin="round" stroke-width="2.988" d="m230.268 115.452-12.256 5.021v-52.93l12.256 5.022a5.52 5.52 0 0 1 3.427 5.107v32.674a5.52 5.52 0 0 1-3.427 5.106"/><path fill="#41423c" stroke="#63615b" stroke-linecap="round" stroke-linejoin="round" stroke-width="2.988" d="M29.39 59.201H212.62a5.395 5.395 0 0 1 5.393 5.393v58.829a5.395 5.395 0 0 1-5.393 5.393H29.391a5.395 5.395 0 0 1-5.393-5.392v-58.83a5.395 5.395 0 0 1 5.393-5.393"/><path fill="#7f9097" d="M210.496 70.914H31.514v46.189h178.982z"/><path fill="#32352f" stroke="#32352f" stroke-linecap="round" stroke-linejoin="round" stroke-width="2.965" d="M210.496 61.605H35.82v1.973h174.676zM210.496 124.439H35.82v1.974h174.676z"/><path fill="#a4b0b5" d="M44.664 94.752h-8.821v15.311h8.821zM44.664 77.955h-8.821v15.31h8.821zM55.431 94.752H46.61v15.311h8.821zM55.431 77.955H46.61v15.31h8.821zM66.198 94.752h-8.822v15.311h8.822zM66.198 77.955h-8.822v15.31h8.822zM76.965 94.752h-8.822v15.311h8.822zM76.965 77.955h-8.822v15.31h8.822zM87.732 94.752H78.91v15.311h8.822zM87.732 77.955H78.91v15.31h8.822zM98.499 94.752h-8.822v15.311H98.5zM98.499 77.955h-8.822v15.31H98.5zM109.266 94.752h-8.822v15.311h8.822zM109.266 77.955h-8.822v15.31h8.822zM120.032 94.752h-8.821v15.311h8.821zM120.032 77.955h-8.821v15.31h8.821zM130.799 94.752h-8.821v15.311h8.821zM130.799 77.955h-8.821v15.31h8.821zM141.566 94.752h-8.821v15.311h8.821zM141.566 77.955h-8.821v15.31h8.821zM152.333 94.752h-8.822v15.311h8.822zM152.333 77.955h-8.822v15.31h8.822zM163.1 94.752h-8.822v15.311h8.822zM163.1 77.955h-8.822v15.31h8.822zM173.867 94.752h-8.822v15.311h8.822zM173.867 77.955h-8.822v15.31h8.822zM184.634 94.752h-8.822v15.311h8.822zM184.634 77.955h-8.822v15.31h8.822zM195.4 94.752h-8.821v15.311h8.821zM195.4 77.955h-8.821v15.31h8.821zM206.167 94.752h-8.821v15.311h8.821zM206.167 77.955h-8.821v15.31h8.821z"/><path fill="#51504b" stroke="#51504b" stroke-miterlimit="10" stroke-width="2.988" d="M295.097 156.504H4.903v15.461h290.194z"/><path stroke="#63615b" stroke-linecap="square" stroke-miterlimit="10" stroke-width="2.988" d="M295.097 174.547H4.903"/><path fill="#51504b" stroke="#51504b" stroke-miterlimit="10" stroke-width="2.988" d="M4.903 30.992h290.194v-15.46H4.903z"/><path stroke="#63615b" stroke-linecap="square" stroke-miterlimit="10" stroke-width="2.988" d="M4.903 12.95h290.194"/><path fill="#63615b" stroke="#63615b" stroke-miterlimit="10" stroke-width="2.988" d="m220.645 54.132.9.2 1.001.6.7 1.001.201 1h-.101v6.505l14.91 6.304.1-.1.801.6.7 1.001.201 1.001v43.329l-.1.8-.601 1.001-1.001.801h-.1l-14.91 6.204v6.504h.101l-.201.901-.6 1-1.001.701-1 .2H21.512l-.9-.2-1.001-.601-.7-1-.201-1.001v-73.95l.2-.9.6-1 1.001-.7 1-.201v.1h199.034zm74.452-22.711H4.903v125.083h290.194V31.421ZM284.59 104.97l-.2.901-.601 1-1 .701-1.001.2-.1.1h-22.215v-.1l-.901-.2-1-.601-.701-1-.2-1.001V82.755l.2-.9.601-1.001 1-.7 1.001-.2v.1h22.215l.1-.1.9.2 1.001.6.701 1 .2 1.001-.1.1v22.215z"/><path fill="#898681" stroke="#898681" stroke-linecap="round" stroke-linejoin="round" stroke-width="2.965" d="M292.583 152.196H7.916c-.57 0-1.032.462-1.032 1.032v.855c0 .569.462 1.031 1.032 1.031h284.667c.57 0 1.032-.462 1.032-1.031v-.855c0-.57-.462-1.032-1.032-1.032M296.666 137.962h2.174v2.134a.91.91 0 0 1-.908.908h-1.266zM1.294 137.907h2.174v3.042H2.006a.71.71 0 0 1-.712-.712zM296.666 38.104h2.174v.708a.813.813 0 0 1-.813.813h-1.361zM1.294 38.104h2.174v1.52H2.126a.833.833 0 0 1-.832-.832z"/><path fill="#fff" d="M43.293 81.883v7.805H42.02v-3.422h-3.302v3.422h-1.273v-7.805h1.273v3.254h3.302v-3.254zM53.932 81.883v1.069h-4.143v2.21h3.758v1.056H49.79v2.378h4.13v1.092h-5.403v-7.805zM60.8 81.883v6.713h4.01v1.092h-5.283v-7.805zM71.607 81.883v6.713h4.011v1.092h-5.283v-7.805zM86.87 85.786c0 2.305-1.021 4.022-3.315 4.022-2.281 0-3.242-1.477-3.242-3.986 0-2.39.997-4.047 3.278-4.047 2.27 0 3.279 1.285 3.279 4.01m-1.345 0c0-1.994-.385-2.942-1.934-2.942-1.5 0-1.921.937-1.921 2.978 0 1.861.336 2.918 1.885 2.918 1.525 0 1.97-1.081 1.97-2.954M42.152 105.271l.456-6.377h1.225l-.96 7.806H41.6l-1.19-4.239-1.044 4.239H38.07l-1.165-7.806h1.31l.612 6.365 1.08-4.407h1.033zM54.448 102.797c0 2.305-1.02 4.023-3.314 4.023-2.282 0-3.242-1.477-3.242-3.987 0-2.389.996-4.047 3.278-4.047 2.27 0 3.278 1.285 3.278 4.011m-1.345 0c0-1.993-.384-2.942-1.933-2.942-1.501 0-1.921.937-1.921 2.978 0 1.861.336 2.918 1.885 2.918 1.525 0 1.97-1.081 1.97-2.954M59.227 98.895h2.714c2.041 0 2.81.912 2.81 2.449 0 1.081-.517 1.861-1.393 2.234l1.741 3.122h-1.501l-1.513-2.858H60.5v2.858h-1.273zm4.179 2.485c0-1.009-.432-1.417-1.55-1.417H60.5v2.822h1.405c.852 0 1.5-.336 1.5-1.405M71.607 98.895v6.712h4.011v1.093h-5.283v-7.806zM80.661 98.895h2.594c2.798 0 3.639 1.669 3.639 3.842 0 2.029-.625 3.963-3.687 3.963h-2.546zm1.273 1.068v5.644h1.381c1.981 0 2.222-1.237 2.222-2.81 0-1.561-.36-2.834-2.306-2.834zM94.386 105.367c.445 0 .793.228.793.72 0 .481-.3.745-.793.745-.504 0-.768-.264-.768-.745 0-.456.3-.72.768-.72m.589-6.473v2.678l-.12 2.534h-.925l-.132-2.546v-2.666z"/><path fill="#fff" d="M43.293 81.883v7.805H42.02v-3.422h-3.302v3.422h-1.273v-7.805h1.273v3.254h3.302v-3.254zM53.932 81.883v1.069h-4.143v2.21h3.758v1.056H49.79v2.378h4.13v1.092h-5.403v-7.805zM60.8 81.883v6.713h4.01v1.092h-5.283v-7.805zM71.607 81.883v6.713h4.011v1.092h-5.283v-7.805zM86.87 85.786c0 2.305-1.021 4.022-3.315 4.022-2.281 0-3.242-1.477-3.242-3.986 0-2.39.997-4.047 3.278-4.047 2.27 0 3.279 1.285 3.279 4.01m-1.345 0c0-1.994-.385-2.942-1.934-2.942-1.5 0-1.921.937-1.921 2.978 0 1.861.336 2.918 1.885 2.918 1.525 0 1.97-1.081 1.97-2.954M42.152 105.271l.456-6.377h1.225l-.96 7.806H41.6l-1.19-4.239-1.044 4.239H38.07l-1.165-7.806h1.31l.612 6.365 1.08-4.407h1.033zM54.448 102.797c0 2.305-1.02 4.023-3.314 4.023-2.282 0-3.242-1.477-3.242-3.987 0-2.389.996-4.047 3.278-4.047 2.27 0 3.278 1.285 3.278 4.011m-1.345 0c0-1.993-.384-2.942-1.933-2.942-1.501 0-1.921.937-1.921 2.978 0 1.861.336 2.918 1.885 2.918 1.525 0 1.97-1.081 1.97-2.954M59.227 98.895h2.714c2.041 0 2.81.912 2.81 2.449 0 1.081-.517 1.861-1.393 2.234l1.741 3.122h-1.501l-1.513-2.858H60.5v2.858h-1.273zm4.179 2.485c0-1.009-.432-1.417-1.55-1.417H60.5v2.822h1.405c.852 0 1.5-.336 1.5-1.405M71.607 98.895v6.712h4.011v1.093h-5.283v-7.806zM80.661 98.895h2.594c2.798 0 3.639 1.669 3.639 3.842 0 2.029-.625 3.963-3.687 3.963h-2.546zm1.273 1.068v5.644h1.381c1.981 0 2.222-1.237 2.222-2.81 0-1.561-.36-2.834-2.306-2.834zM94.386 105.367c.445 0 .793.228.793.72 0 .481-.3.745-.793.745-.504 0-.768-.264-.768-.745 0-.456.3-.72.768-.72m.589-6.473v2.678l-.12 2.534h-.925l-.132-2.546v-2.666z"/></g><defs><clipPath id="a"><path fill="#fff" d="M0 0h300v187.925H0z"/></clipPath></defs></svg>
